icons/footer-links-5.svg

<svg width="30" height="30" viewBox="0 0 30 30" fill="none" xmlns="http://www.w3.org/2000/svg">
<path opacity="0.5" fill-rule="evenodd" clip-rule="evenodd" d="M15 27.5C21.9037 27.5 27.5 21.9037 27.5 15C27.5 8.09625 21.9037 2.5 15 2.5C8.09625 2.5 2.5 8.09625 2.5 15C2.5 21.9037 8.09625 27.5 15 27.5ZM15 20C16.3261 20 17.5979 19.4732 18.5355 18.5355C19.4732 17.5979 20 16.3261 20 15C20 13.6739 19.4732 12.4021 18.5355 11.4645C17.5979 10.5268 16.3261 10 15 10C13.6739 10 12.4021 10.5268 11.4645 11.4645C10.5268 12.4021 10 13.6739 10 15C10 16.3261 10.5268 17.5979 11.4645 18.5355C12.4021 19.4732 13.6739 20 15 20Z" fill="white"/>
<path d="M6.84871 24.4777L12.1887 19.1365C11.6675 18.7823 11.2179 18.3327 10.8637 17.8115L5.52246 23.1502C5.93163 23.6252 6.37329 24.0669 6.84746 24.4752M5.52246 6.85023L10.8637 12.1902C11.2179 11.669 11.6675 11.2195 12.1887 10.8652L6.84996 5.52148C6.37496 5.93148 5.93288 6.37357 5.52371 6.84773M17.81 10.864L23.15 5.52523C23.625 5.93357 24.0666 6.37523 24.475 6.85023L19.1375 12.1902C18.7829 11.6689 18.3329 11.2193 17.8112 10.8652M24.4762 23.1515L19.135 17.8102C18.7807 18.3315 18.3312 18.781 17.81 19.1352L23.15 24.4777C23.6258 24.0686 24.0679 23.6265 24.4762 23.1515Z" fill="white"/>
</svg>

<svg xmlns="http://www.w3.org/2000/svg" width="30" height="30" fill="none"><path fill="#fff" fill-rule="evenodd" d="M15 27.5c6.904 0 12.5-5.596 12.5-12.5S21.904 2.5 15 2.5 2.5 8.096 2.5 15 8.096 27.5 15 27.5m0-7.5a5 5 0 1 0 0-10 5 5 0 0 0 0 10" clip-rule="evenodd" opacity=".5"/><path fill="#fff" d="m6.849 24.478 5.34-5.341a5 5 0 0 1-1.325-1.326l-5.342 5.34q.615.711 1.325 1.324M5.522 6.85l5.342 5.34c.354-.521.803-.97 1.325-1.325L6.85 5.521q-.712.616-1.326 1.327m12.286 4.016 5.34-5.339q.713.613 1.325 1.325l-5.338 5.34a5 5 0 0 0-1.326-1.325m6.665 12.286-5.341-5.34a5 5 0 0 1-1.325 1.324l5.34 5.343q.714-.615 1.326-1.327"/></svg>
